assets/icons/members_colored.svg

<svg fill="none" height="24" viewBox="0 0 24 24" width="24" xmlns="http://www.w3.org/2000/svg" xmlns:xlink="http://www.w3.org/1999/xlink"><mask id="a" height="12" maskUnits="userSpaceOnUse" width="18" x="3" y="6"><path d="m21 6h-18v12h18z" fill="#fff"/></mask><g mask="url(#a)"><path d="m20.9612 16.3646c-.3691-2.1672-2.7461-3.4281-4.8603-2.5726-.1061.0429-.1575.0278-.2307-.053-1.2009-1.3048-2.7099-1.8823-4.5084-1.683-1.3058.1447-2.38877.7326-3.24358 1.6953-.06654.0756-.11497.0832-.20298.046-.4181-.1755-.86849-.269-1.32473-.275-.80092-.016-1.58355.231-2.21851.7002-.63495.4692-1.08423 1.1324-1.27356 1.8801-.03387.1323-.02855.2749-.09844.3991v.5066c.01168.0113.02223.0235.0315.0367.10493.1811.2701.2659.44197.2256.18978-.0442.29531-.1823.30692-.3971.00783-.1739.02882-.3471.0628-.5181.315-1.5374 2.08288-2.4812 3.60804-1.9289.11339.0411.12304.0717.06575.1727-.39236.6917-.58234 1.4371-.60734 2.2216-.00551.1533.03052.2887.16832.3832.25436.1755.58037.028.61562-.2887.02539-.2286.01968-.4603.05748-.6883.43311-2.568 3.24694-4.1165 5.78994-3.1861 1.6086.5892 2.7042 2.07 2.7534 3.7246.003.1012.0034.2033.0494.2971.0736.1497.261.2424.4207.2109.2009-.0398.3308-.2011.3257-.4212-.0198-.7971-.2093-1.5531-.6084-2.2548-.0591-.1032-.0449-.1323.0674-.1725 1.0056-.3592 2.2193-.0743 2.9393.6914.4701.4999.7067 1.0867.7317 1.7565.009.2392.1589.3996.3762.4047.2022.0049.3138-.1176.4036-.2693v-.4728c-.0624-.0459-.0291-.114-.0388-.1709z" fill="#5c5b5b"/><g fill="#969696"><path d="m11.9998 11.2663c1.509 0 2.7418-1.1869 2.742-2.6392 0-1.44034-1.2336-2.62615-2.7332-2.6271-1.5144 0-2.74921 1.17844-2.75079 2.6271-.00157 1.4487 1.23439 2.6392 2.74199 2.6392zm-.1037-4.50822c.2587-.01316.5177.02326.7617.10714.2439.08388.4681.21355.6594.38145.1914.16791.346.3707.4549.59655.109.22586.17.47028.1796.71903.045 1.04153-.8126 1.90045-1.8399 1.93955-1.0329.0728-2.0041-.70174-2.0636-1.77448-.05547-1.00144.7463-1.90986 1.8479-1.96924z"/><path d="m6.58065 12.7623c1.08082 0 1.94449-.8309 1.94901-1.8721.00078-.2473-.0493-.4923-.14739-.7209-.09807-.22869-.24222-.43648-.42414-.61149-.18192-.175-.39804-.31376-.63594-.40831-.23791-.09456-.49293-.14304-.75039-.14266-1.06684 0-1.95177.85093-1.95315 1.87626-.00157 1.0381.87686 1.88 1.962 1.8792zm0-3.00361c.2311.00102.45672.06762.64854.19143.1918.12378.34123.29928.42952.50448.08828.2051.11148.4307.06668.6485-.04482.2177-.15562.4179-.31851.5754-.1629.1574-.3706.2651-.59703.3096-.22642.0444-.46146.0235-.67558-.06-.21413-.0835-.39778-.2259-.52789-.4093-.13011-.1835-.20088-.3998-.2034-.6217-.00807-.6178.53509-1.14352 1.17689-1.13841z"/><path d="m17.4888 12.7631c.2561-.0007.5095-.0499.7458-.1448.2362-.0949.4507-.2336.6311-.4081s.3233-.3815.4204-.609c.0972-.2276.1467-.4713.1457-.7173-.0056-1.04266-.886-1.88356-1.9664-1.87752-1.0737.00624-1.9567.86777-1.9473 1.90042.0095 1.0277.8952 1.8622 1.9707 1.8563zm-.0021-3.00393c.2311.00173.4566.06905.648.19352.1914.12451.3402.30051.4278.50601.0875.2055.1098.4313.0642.6489-.0458.2177-.1575.4175-.3211.5743-.1636.1569-.3719.2637-.5985.3072-.2267.0435-.4617.0216-.6755-.0629s-.3968-.2278-.5259-.4119c-.1293-.1841-.1989-.4008-.2002-.6228-.0005-.6237.5401-1.14216 1.1812-1.13233z"/></g></g></svg>

<svg width="24" height="24" viewBox="0 0 24 24" fill="none" xmlns="http://www.w3.org/2000/svg">
<mask id="mask0_278_2322" style="mask-type:alpha" maskUnits="userSpaceOnUse" x="3" y="6" width="18" height="12">
<path d="M21 6H3V18H21V6Z" fill="white"/>
</mask>
<g mask="url(#mask0_278_2322)">
<path d="M20.9612 16.3646C20.5921 14.1974 18.2151 12.9365 16.1009 13.792C15.9948 13.8349 15.9434 13.8198 15.8702 13.739C14.6693 12.4342 13.1603 11.8567 11.3618 12.056C10.056 12.2007 8.97303 12.7886 8.11822 13.7513C8.05168 13.8269 8.00325 13.8345 7.91524 13.7973C7.49714 13.6218 7.04675 13.5283 6.59051 13.5223C5.78959 13.5063 5.00696 13.7533 4.372 14.2225C3.73705 14.6917 3.28777 15.3549 3.09844 16.1026C3.06457 16.2349 3.06989 16.3775 3 16.5017V17.0083C3.01168 17.0196 3.02223 17.0318 3.0315 17.045C3.13643 17.2261 3.3016 17.3109 3.47347 17.2706C3.66325 17.2264 3.76878 17.0883 3.78039 16.8735C3.78822 16.6996 3.80921 16.5264 3.84319 16.3554C4.15819 14.818 5.92607 13.8742 7.45123 14.4265C7.56462 14.4676 7.57427 14.4982 7.51698 14.5992C7.12462 15.2909 6.93464 16.0363 6.90964 16.8208C6.90413 16.9741 6.94016 17.1095 7.07796 17.204C7.33232 17.3795 7.65833 17.232 7.69358 16.9153C7.71897 16.6867 7.71326 16.455 7.75106 16.227C8.18417 13.659 10.998 12.1105 13.541 13.0409C15.1496 13.6301 16.2452 15.1109 16.2944 16.7655C16.2974 16.8667 16.2978 16.9688 16.3438 17.0626C16.4174 17.2123 16.6048 17.305 16.7645 17.2735C16.9654 17.2337 17.0953 17.0724 17.0902 16.8523C17.0704 16.0552 16.8809 15.2992 16.4818 14.5975C16.4227 14.4943 16.4369 14.4652 16.5492 14.425C17.5548 14.0658 18.7685 14.3507 19.4885 15.1164C19.9586 15.6163 20.1952 16.2031 20.2202 16.8729C20.2292 17.1121 20.3791 17.2725 20.5964 17.2776C20.7986 17.2825 20.9102 17.16 21 17.0083V16.5355C20.9376 16.4896 20.9709 16.4215 20.9612 16.3646Z" fill="#5C5B5B"/>
<path d="M11.9998 11.2663C13.5088 11.2663 14.7416 10.0794 14.7418 8.6271C14.7418 7.18676 13.5082 6.00095 12.0086 6C10.4942 6 9.25939 7.17844 9.25781 8.6271C9.25624 10.0758 10.4922 11.2663 11.9998 11.2663ZM11.8961 6.75808C12.1548 6.74492 12.4138 6.78134 12.6578 6.86522C12.9017 6.9491 13.1259 7.07877 13.3172 7.24667C13.5086 7.41458 13.6632 7.61737 13.7721 7.84322C13.8811 8.06908 13.9421 8.3135 13.9517 8.56225C13.9967 9.60378 13.1391 10.4627 12.1118 10.5018C11.0789 10.5746 10.1077 9.80006 10.0482 8.72732C9.99273 7.72588 10.7945 6.81746 11.8961 6.75808Z" fill="#969696"/>
<path d="M6.58065 12.7623C7.66147 12.7623 8.52514 11.9314 8.52966 10.8902C8.53044 10.6429 8.48036 10.3979 8.38227 10.1693C8.2842 9.94061 8.14005 9.73282 7.95813 9.55781C7.77621 9.38281 7.56009 9.24405 7.32219 9.1495C7.08428 9.05494 6.82926 9.00646 6.5718 9.00684C5.50496 9.00684 4.62003 9.85777 4.61865 10.8831C4.61708 11.9212 5.49551 12.7631 6.58065 12.7623ZM6.58065 9.75869C6.81175 9.75971 7.03737 9.82631 7.22919 9.95012C7.42099 10.0739 7.57042 10.2494 7.65871 10.4546C7.74699 10.6597 7.77019 10.8853 7.72539 11.1031C7.68057 11.3208 7.56977 11.521 7.40688 11.6785C7.24398 11.8359 7.03628 11.9436 6.80985 11.9881C6.58343 12.0325 6.34839 12.0116 6.13427 11.9281C5.92014 11.8446 5.73649 11.7022 5.60638 11.5188C5.47627 11.3353 5.4055 11.119 5.40298 10.8971C5.39491 10.2793 5.93807 9.75358 6.57987 9.75869H6.58065Z" fill="#969696"/>
<path d="M17.4888 12.7631C17.7449 12.7624 17.9983 12.7132 18.2346 12.6183C18.4708 12.5234 18.6853 12.3847 18.8657 12.2102C19.0461 12.0357 19.189 11.8287 19.2861 11.6012C19.3833 11.3736 19.4328 11.1299 19.4318 10.8839C19.4262 9.84124 18.5458 9.00034 17.4654 9.00638C16.3917 9.01262 15.5087 9.87415 15.5181 10.9068C15.5276 11.9345 16.4133 12.769 17.4888 12.7631ZM17.4867 9.75917C17.7178 9.7609 17.9433 9.82822 18.1347 9.95269C18.3261 10.0772 18.4749 10.2532 18.5625 10.4587C18.65 10.6642 18.6723 10.89 18.6267 11.1076C18.5809 11.3253 18.4692 11.5251 18.3056 11.6819C18.142 11.8388 17.9337 11.9456 17.7071 11.9891C17.4804 12.0326 17.2454 12.0107 17.0316 11.9262C16.8178 11.8417 16.6348 11.6984 16.5057 11.5143C16.3764 11.3302 16.3068 11.1135 16.3055 10.8915C16.305 10.2678 16.8456 9.74934 17.4867 9.75917Z" fill="#969696"/>
</g>
</svg>
